X:167
T:Half Moon THO3.167
O:England;London
M:6/8
L:1/8
Z:vmp. Peter Dunk 2011.from a transcription by Fynn Titford-Mock 2006-9
B:Thompson's Compleat Collection of 200 Favourite Country Dances Vol. III.1765-72
Q:3/8=100
K:G
G|d>ed d>ed|e2 f g2d|d>ed d>ed|c2 A A2 G|
d>ed d>ed|e2 f gag|fed Ad^c|d3-d2:|
|:d|d>ed d>ed|c2 A A2 G|d>ed edc|B2 G G2 d|
d>ed d>ed|e2 f gfe|dcB cBA|G3-G2:|

